X: 100323
T: ANNIE IS MY DARLING -- Reel
R: reel
B: K\"ohler's Violin Repository, v.e, 1885 p.230 #2
F: http://www.archive.org/details/klersviolinrepos03rugg
Z: 2012 John Chambers <jc:trillian.mit.edu>
M: C
L: 1/8
K: A
uc) |\
A2(AE) CEAB | (cd)Bc (AF)FA | (GA)AE (CE)Ae |
cAec B2(A :| ud) | ce{ef}e2 cf{fg}f2 | ec(c{dc}B) (AF)Fd |
ce{ef}e2 (ce)fg | (ag)fe (f{gf}^e)fg | (ag)fe (fg)af |
(ec)dB (cA)FA | GAEA CEA,e | cAec {Bc}B2("_Fine"A "^D.C."|]

%%sep 2 1 500

